dist/img/svg/icon-apple.svg

<svg width="21" height="24" viewBox="0 0 21 24" fill="none" xmlns="http://www.w3.org/2000/svg">
<path fill-rule="evenodd" clip-rule="evenodd" d="M14.8985 0.0714487C13.8597 0.279634 12.7977 0.847269 12.0654 1.58585C11.0337 2.62622 10.4142 4.05547 10.4573 5.29575L10.4706 5.67819L10.8819 5.6724C11.8477 5.65875 12.7923 5.20711 13.7001 4.32508C14.8553 3.20264 15.4627 1.87022 15.4627 0.458164V0L15.3373 0.00432186C15.2684 0.00671268 15.0709 0.0369198 14.8985 0.0714487ZM14.1178 5.77249C13.6262 5.86551 13.1803 5.99387 12.4994 6.23856C12.1859 6.35116 11.6731 6.52661 11.3596 6.62836C10.5826 6.88068 10.5068 6.87236 9.08016 6.37714C7.55168 5.84661 7.24377 5.77456 6.50435 5.77447C4.54232 5.77419 2.67789 6.8468 1.54846 8.62552C1.11212 9.3127 0.725659 10.3412 0.545581 11.2943C0.455131 11.7731 0.442868 11.9812 0.444463 13.0116C0.445922 13.9885 0.462654 14.2849 0.544578 14.7893C0.88504 16.8855 1.70561 19.0285 2.8039 20.6898C3.74646 22.1155 4.70986 23.1759 5.47859 23.6336C5.95336 23.9163 6.26355 24.0001 6.83342 24C7.39645 23.9999 7.82449 23.9021 8.6492 23.5851C9.74631 23.1634 10.263 23.0601 11.1089 23.0933C11.7851 23.1199 12.2811 23.2324 13.0485 23.5332C14.684 24.1743 15.6202 24.1523 16.648 23.4485C17.5793 22.8106 18.9363 21.0417 19.7439 19.4126C20.0117 18.8725 20.4233 17.8697 20.4438 17.7075C20.4521 17.642 20.3672 17.5743 20.0952 17.4291C18.8419 16.7601 17.8525 15.62 17.4523 14.3833C17.1567 13.47 17.1134 12.2047 17.347 11.3009C17.6414 10.1619 18.2733 9.2521 19.3071 8.47849C19.5535 8.29412 19.7786 8.13536 19.8074 8.1257C19.8732 8.10359 19.4758 7.59572 19.1491 7.28423C18.4047 6.57447 17.4339 6.08509 16.2819 5.83875C15.6581 5.70537 14.6377 5.6741 14.1178 5.77249Z" fill="black"/>
</svg>

<svg width="21" height="24" fill="none" xmlns="http://www.w3.org/2000/svg"><path fill-rule="evenodd" clip-rule="evenodd" d="M14.899.071c-1.04.209-2.101.776-2.834 1.515-1.031 1.04-1.65 2.47-1.608 3.71l.014.382.41-.006c.967-.013 1.911-.465 2.82-1.347 1.154-1.122 1.762-2.455 1.762-3.867V0l-.126.004a3.945 3.945 0 00-.438.067zm-.781 5.701c-.492.094-.938.222-1.619.467-.313.112-.826.288-1.14.39-.776.252-.852.243-2.279-.252-1.528-.53-1.836-.602-2.576-.603-1.962 0-3.826 1.073-4.956 2.852-.436.687-.822 1.715-1.002 2.668-.09.48-.103.687-.102 1.718.002.976.019 1.273.1 1.777.341 2.097 1.162 4.24 2.26 5.9.942 1.427 1.906 2.487 2.675 2.945.474.282.785.366 1.354.366.563 0 .991-.098 1.816-.415 1.097-.422 1.614-.525 2.46-.492.676.027 1.172.14 1.94.44 1.635.641 2.571.62 3.599-.085.931-.637 2.288-2.406 3.096-4.035.268-.54.68-1.543.7-1.706.008-.065-.077-.133-.349-.278-1.253-.669-2.242-1.809-2.643-3.046-.295-.913-.339-2.178-.105-3.082.294-1.14.926-2.049 1.96-2.823.247-.184.472-.343.5-.352.066-.022-.331-.53-.658-.842-.744-.71-1.715-1.199-2.867-1.445-.624-.134-1.644-.165-2.164-.067z" fill="#000"/></svg>
